svg/merge.svg

<svg xmlns="http://www.w3.org/2000/svg" viewBox="0 0 24 24"><path d="m8 17 4-4h3.2c.4 1.2 1.5 2 2.8 2 1.7 0 3-1.3 3-3s-1.3-3-3-3c-1.3 0-2.4.8-2.8 2H12L8 7V3H3v5h3l4.2 4L6 16H3v5h5z"/></svg>

<?xml version="1.0" encoding="UTF-8"?><!DOCTYPE svg PUBLIC "-//W3C//DTD SVG 1.1//EN" "http://www.w3.org/Graphics/SVG/1.1/DTD/svg11.dtd"><svg xmlns="http://www.w3.org/2000/svg" xmlns:xlink="http://www.w3.org/1999/xlink" version="1.1" id="mdi-merge" width="24" height="24" viewBox="0 0 24 24"><path d="M8 17L12 13H15.2C15.6 14.2 16.7 15 18 15C19.7 15 21 13.7 21 12S19.7 9 18 9C16.7 9 15.6 9.8 15.2 11H12L8 7V3H3V8H6L10.2 12L6 16H3V21H8V17Z" /></svg>
